X: 10
T: Paddy Fahey's
R: jig
M: 6/8
L: 1/8
K: Gmaj
|:DGA B3|cBc d2g|gfd Bcd|cAG AGF|
DGA B3|cBc d2g|gfd Bcd|1 cAF G2F:|2 cAF GBd||
|:g2d fga|gfd Bcd|cAA f3|agf def|
g2a bag|fdg fdc|B2G AGF|1 DGF GBd:|2 DGF G2F||


Tune 532	Setting 13472

